X:1
T:Title
%%score 1 ( 2 3 )
L:1/8
Q:1/4=150
M:3/2
K:D
V:1 treble nm="Grand Piano, Soprano"
V:2 treble nm="Choir Pad, Christmas Eve (Zundel)"
V:3 treble 
V:1
 d4 d3 d d4 | d4 D8 | [DF]2 [EG]2 [FA]3 [GB] [FA]2 [DF]2 | [EG]2 [GB]2 [FA]8 | %4
w: By~John~Zundel * * *||||
 [Dd]2 [GB]2 [FA]3 [GB] [FA]2 [DF]2 | [EG]2 [GB]2 [FA]8 | D4 E2 F2 G2 A2 | B2 c2 d8 | [Gc]4 [Fd]8 | %9
w: |||||
 [^GB]4 A8 | [Gc]4 [Fd]8 | [^Gc]4 A8 | [Ad]4 [Be]8 | [Bd]4 [Ac]8 | [Ad]4 [Ge]8 | [Gc]4 [Fd]8- | %16
w: |||||||
 [Fd]4 z4 z4 |] %17
w: |
V:2
 D4 D3 D D4 | D4[K:bass] D,8 | D,4 D,6 D,2 | D,2 D,2 D,8 | D,4 D,6 D,2 | D,2 D,2 D,8 | %6
 D,4 E,2 F,2 G,2 A,2 | B,2 C2 D8 | [^A,E]4 [B,D]8 | [E,D]4 [A,C]8 | E4 z4 z4 | %11
 [E,D]4[K:treble] [A,C]8 | [F,F]4 [G,E]8 | [G,=F]4 [G,E]8 | [F,D]4 [E,B,]8 | A,4 [D,A,]8- | %16
 [D,A,]4 z4 z4 |] %17
V:3
 x12 | x4[K:bass] x8 | x12 | x12 | x12 | x12 | x12 | x12 | x12 | x12 | A,2 ^A,2 [B,D]8 | %11
 x4[K:treble] x8 | x12 | x12 | x12 | x12 | x12 |] %17

